assets/jsonwebtokens/original.svg

<svg viewBox="0 0 24 24" xmlns="http://www.w3.org/2000/svg"><path d="m10.2 0v6.456l1.8 2.472 1.8-2.472v-6.456zm3.6 6.456v3.072l2.904-.96 3.816-5.208-2.928-2.136zm2.904 2.112-1.8 2.496 2.928.936 6.144-1.992-1.128-3.432zm1.128 3.432-2.928.936 1.8 2.496 6.144 1.992 1.128-3.432zm-1.128 3.432-2.904-.96v3.072l3.792 5.232 2.928-2.136zm-2.904 2.112-1.8-2.472-1.8 2.472v6.456h3.6zm-3.6 0v-3.072l-2.904.96-3.816 5.208 2.928 2.136zm-2.904-2.112 1.8-2.496-2.928-.936-6.144 1.992 1.128 3.432zm-1.128-3.432 2.928-.936-1.8-2.496-6.144-1.992-1.128 3.432zm1.128-3.432 2.904.96v-3.072l-3.792-5.232-2.928 2.136z"/></svg>

<svg xmlns="http://www.w3.org/2000/svg" viewBox="0 0 24 24"><title>JSON Web Tokens</title><path d="M10.2 0v6.456L12 8.928l1.8-2.472V0zm3.6 6.456v3.072l2.904-.96L20.52 3.36l-2.928-2.136zm2.904 2.112-1.8 2.496 2.928.936 6.144-1.992-1.128-3.432zM17.832 12l-2.928.936 1.8 2.496 6.144 1.992 1.128-3.432zm-1.128 3.432-2.904-.96v3.072l3.792 5.232 2.928-2.136zM13.8 17.544 12 15.072l-1.8 2.472V24h3.6zm-3.6 0v-3.072l-2.904.96L3.48 20.64l2.928 2.136zm-2.904-2.112 1.8-2.496L6.168 12 .024 13.992l1.128 3.432zM6.168 12l2.928-.936-1.8-2.496-6.144-1.992-1.128 3.432zm1.128-3.432 2.904.96V6.456L6.408 1.224 3.48 3.36Z"/></svg>
